libs/ui/packages/crypto-icons/src/svg/BEN.svg

<svg width="36" height="35" viewBox="0 0 36 35" fill="none" xmlns="http://www.w3.org/2000/svg">
<path d="M24.1462 11.8698L27.1383 13.1544L29.6245 14.2263L32.4237 15.4231L34.5518 16.3385C34.563 16.3431 34.5709 16.3532 34.5729 16.3651C34.5748 16.3771 34.5704 16.3892 34.5613 16.397L33.2253 17.5449L30.6925 19.7188L26.4893 23.2959L25.8482 20.148C25.8464 20.1395 25.8407 20.1322 25.833 20.1284C25.8252 20.1247 25.8162 20.1249 25.8087 20.1291C24.7389 20.6988 23.8169 21.4497 23.0427 22.382C22.7386 22.7478 22.4777 23.1907 22.2601 23.7109C21.8111 24.7111 21.4933 25.752 21.3067 26.8334C21.0859 28.1146 20.9628 29.4057 20.9375 30.7069C20.927 31.2666 20.9188 31.8271 20.913 32.3884C20.9121 32.4689 20.8668 32.5416 20.796 32.5765L18.0601 33.9227C17.2548 33.5328 16.3299 33.0455 15.2854 32.4611C15.1452 32.3826 15.0817 32.27 15.0949 32.1235C15.1007 32.0598 15.1036 32.0237 15.1036 32.0152C15.1194 31.1378 15.1365 30.2603 15.1549 29.3828L15.155 29.3723L15.1558 29.3C15.157 29.1934 15.1593 28.9841 15.1628 28.6721C15.1755 27.5907 15.2806 26.5177 15.4783 25.4532C16.1101 22.4766 17.5578 19.997 19.8213 18.0144C20.3157 17.5812 20.8848 17.1414 21.5289 16.6951C22.5613 16.0347 23.6271 15.4329 24.7265 14.8895C24.7475 14.8789 24.7589 14.8558 24.7542 14.8334L24.1462 11.8698ZM11.2095 11.8721L10.4466 15.533C10.4425 15.5525 10.4465 15.5728 10.4577 15.5892C10.4689 15.6056 10.4863 15.6167 10.5059 15.62C11.8298 15.8424 13.0472 16.3183 14.1581 17.0476C14.9038 17.5378 15.5963 18.0943 16.2356 18.7172C16.2425 18.7241 16.2459 18.7338 16.2448 18.7434C16.2437 18.753 16.2383 18.7614 16.23 18.7662L13.2024 20.5488L11.7178 21.3939C11.6627 21.4254 11.5953 21.4266 11.5391 21.397C10.8862 21.0508 10.1976 20.7607 9.47352 20.5267C9.46319 20.5233 9.45201 20.5242 9.44279 20.529C9.43357 20.5338 9.4272 20.5422 9.4253 20.552L9.2087 21.5306L8.64585 24.1133L5.30672 20.6271L1.66403 16.8105L1 16.0769L4.14783 14.7638L7.67194 13.2927L10.2308 12.2302L11.1644 11.8358C11.2029 11.8194 11.2179 11.8316 11.2095 11.8721ZM17.7559 1C17.7689 1 17.781 1.00614 17.7881 1.01681L23.9636 10.1567C23.9688 10.164 23.9701 10.1734 23.9674 10.1814C23.9646 10.1893 23.9581 10.1947 23.9502 10.1955L23.7241 10.2113C22.5626 10.1807 21.3884 10.1812 20.2016 10.2129C20.1906 10.2133 20.1818 10.222 20.1818 10.2326L20.2142 13.9077C20.2216 14.1038 20.2242 14.2993 20.2221 14.4943C20.2221 14.4969 20.2242 14.5412 20.2285 14.6271C20.2353 14.772 20.1826 14.8869 20.0704 14.9718C20.0219 15.0086 19.995 15.0292 19.9897 15.0334C19.322 15.6057 18.6601 16.1841 18.004 16.7686C17.9861 16.7841 17.9597 16.7845 17.9415 16.7694C17.1794 16.1544 16.3768 15.5615 15.5336 14.9907C15.4577 14.9391 15.4195 14.8677 15.419 14.7765L15.3747 10.2777C15.3743 10.2553 15.3567 10.2374 15.3352 10.2374L11.4111 10.2326C11.3684 10.2326 11.3592 10.215 11.3834 10.1797L14.8933 5.10218L17.0206 2.03657L17.7233 1.0176C17.7307 1.00675 17.7429 1.00016 17.7559 1Z" stroke="url(#paint0_linear_44_3030)" stroke-linejoin="round"/>
<defs>
<linearGradient id="paint0_linear_44_3030" x1="1" y1="17.5401" x2="34.5733" y2="17.5401" gradientUnits="userSpaceOnUse">
<stop stop-color="#000"/>
<stop offset="0.5" stop-color="#000"/>
<stop offset="1" stop-color="#000"/>
</linearGradient>
</defs>
</svg>

<svg xmlns="http://www.w3.org/2000/svg" width="36" height="35" viewBox="0 0 36 35" fill="none"><path stroke="url(#a)" stroke-linejoin="round" d="m24.146 11.87 2.992 1.284 2.486 1.072 2.8 1.197 2.128.915a.035.035 0 0 1 .01.059l-1.337 1.148-2.533 2.174-4.203 3.577-.64-3.148a.03.03 0 0 0-.016-.02.03.03 0 0 0-.024.001 9.2 9.2 0 0 0-2.766 2.253 5.2 5.2 0 0 0-.783 1.329q-.674 1.5-.953 3.122a26 26 0 0 0-.37 3.874q-.015.84-.024 1.681c0 .08-.046.154-.117.189l-2.736 1.346q-1.208-.586-2.775-1.462-.21-.118-.19-.337l.009-.109q.023-1.316.05-2.632l.001-.01V29.3l.008-.628q.019-1.621.315-3.219.948-4.464 4.343-7.439a19 19 0 0 1 1.708-1.319 33 33 0 0 1 3.198-1.806.05.05 0 0 0 .027-.056zm-12.936.002-.763 3.661a.073.073 0 0 0 .059.087 9.4 9.4 0 0 1 3.652 1.428q1.119.735 2.078 1.67.01.01.009.025a.03.03 0 0 1-.015.023l-3.028 1.783-1.484.845a.19.19 0 0 1-.179.003 13 13 0 0 0-2.065-.87.04.04 0 0 0-.031.002.03.03 0 0 0-.018.023l-.216.979-.563 2.582-3.34-3.486-3.642-3.816L1 16.077l3.148-1.313 3.524-1.471 2.559-1.063.933-.394q.058-.025.046.036ZM17.756 1q.02 0 .032.017l6.176 9.14a.03.03 0 0 1 .003.024.02.02 0 0 1-.017.014l-.226.016a66 66 0 0 0-3.522.002.02.02 0 0 0-.02.02l.032 3.675q.012.294.008.586l.006.133a.39.39 0 0 1-.158.345l-.08.061q-1.002.859-1.986 1.736a.05.05 0 0 1-.062 0 36 36 0 0 0-2.408-1.778.25.25 0 0 1-.115-.214l-.044-4.5a.04.04 0 0 0-.04-.04l-3.924-.004q-.064 0-.028-.053l3.51-5.078 2.128-3.065.702-1.02A.04.04 0 0 1 17.756 1Z"/><defs><linearGradient id="a" x1="1" x2="34.573" y1="17.54" y2="17.54" gradientUnits="userSpaceOnUse"><stop/><stop offset=".5"/><stop offset="1"/></linearGradient></defs></svg>
